X: 35842
T: Salty Squid
R: hornpipe
M: 4/4
K: Gmajor
d>e|d2 B2 G2 A>B|A2 F2 D2 (3DEF|G2 F>G c2 B2|A6
d>e|d2 B2 G2 A>B|A2 F2 D2 (3DEF|G2 B>c B>G A2|G6:|
F>G|A2 A2 A>GF>G|A2 F2 D2 E>F|G2 B2 c2 B2|A6
F>G|A2 A2 A>GF>G|A2 F2 D2 (3DEF|G2 B>c B>G A2|G6:|

